wire-ios/Wire-iOS/Resources/Images/Images.xcassets/Archive Filled.imageset/Archive Filled.svg

<svg fill="none" height="22" viewBox="0 0 16 16" width="22" xmlns="http://www.w3.org/2000/svg"><path clip-rule="evenodd" d="m3.19555 1.375c-.75741 0-1.13257.05807-1.51548.19849-.37014.13574-.700207.34965-.939161.65603-.113264.14523-.215449.31457-.28176.54451-.062149.21551-.084149.4547-.084149.73149v2.11948h15.25v-2.11948c0-.27679-.022-.51598-.0841-.73149-.0664-.22994-.1685-.39929-.2818-.54451-.239-.30638-.569-.52029-.9392-.65603-.3829-.14042-.758-.19849-1.5155-.19849zm11.42945 5.5h-13.25v6.7188c0 1.2318 1.16881 2.0312 2.33929 2.0312h8.57141c1.1705 0 2.3393-.7994 2.3393-2.0312zm-8.125 3.3516c-.27614 0-.5.2238-.5.5 0 .2761.22386.5.5.5h3c.27614 0 .5-.2239.5-.5 0-.2762-.22386-.5-.5-.5z" fill="#34373d" fill-rule="evenodd"/></svg>

<svg width="16" height="16" viewBox="0 0 16 16" fill="none" xmlns="http://www.w3.org/2000/svg">
<path fill-rule="evenodd" clip-rule="evenodd" d="M3.19555 1.375C2.43814 1.375 2.06298 1.43307 1.68007 1.57349C1.30993 1.70923 0.979863 1.92314 0.740909 2.22952C0.627645 2.37475 0.52546 2.54409 0.459149 2.77403C0.397 2.98954 0.375 3.22873 0.375 3.50552V5.625H15.625V3.50552C15.625 3.22873 15.603 2.98954 15.5409 2.77403C15.4745 2.54409 15.3724 2.37474 15.2591 2.22952C15.0201 1.92314 14.6901 1.70923 14.3199 1.57349C13.937 1.43307 13.5619 1.375 12.8044 1.375H3.19555ZM14.625 6.875H1.375V13.5938C1.375 14.8256 2.54381 15.625 3.71429 15.625H12.2857C13.4562 15.625 14.625 14.8256 14.625 13.5938V6.875ZM6.5 10.2266C6.22386 10.2266 6 10.4504 6 10.7266C6 11.0027 6.22386 11.2266 6.5 11.2266H9.5C9.77614 11.2266 10 11.0027 10 10.7266C10 10.4504 9.77614 10.2266 9.5 10.2266H6.5Z" fill="#34373D"/>
</svg>
